!!!COM: Anonymous
!!!OPR:	Missa [Bergerette savoysienne]
!!!ONM:	3
!!!OTL:	Credo
!!!AGN:	Mass; Credo
!!!SCT:	Ano1001c
!!!SCA:	Ano1001c
!!!SMS:	Jena 32
!!!folio-OPR: 250v-264r
!!!voices-OPR:	4
!!!voices:	4
**kern	**kern	**kern	**kern
*staff4	*staff3	*staff2	*staff1
*Ivox	*Ivox	*Ivox	*Ivox
*I"Bassus	*I"Tenor	*I"Altus	*I"Superius
*I'B	*I'T	*I'A	*I'S
*>[A,B,C]	*>[A,B,C]	*>[A,B,C]	*>[A,B,C]
*>A	*>A	*>A	*>A
*clefF4	*clefGv2	*clefGv2	*clefG2
*k[]	*k[]	*k[]	*k[]
*M2/1	*M2/1	*M2/1	*M2/1
*met(C|)	*met(C|)	*met(C|)	*met(C|)
=1-	=1-	=1-	=1-
!	!	!	!LO:TX:X=-40:Z=8:t=Threefold c.f. statement in S (first two statements signaled by a repeat sign)
!!section: Patrem omnipotentem
!!!OMD: Patrem omnipotentem
0c	0r	0c	0r
=2	=2	=2	=2
1B	0r	1d	0r
1c	.	1e	.
=3	=3	=3	=3
1A	0r	1e	0r
2G	.	2e	.
[2c	.	[2e	.
=4	=4	=4	=4
4c]	0c	4e]	0r
4B	.	4d	.
4A	.	1c	.
4G	.	.	.
1A	.	.	.
.	.	4B	.
.	.	4A	.
=5	=5	=5	=5
1.G	1d	1B	0r
.	1e	2r	.
2E	.	[2c	.
=6	=6	=6	=6
2A	1e	4c]	0r
.	.	4d	.
2.G	.	4e	.
.	.	4f	.
.	2e	2g	.
4F	.	.	.
4E	[2e	2c	.
4D	.	.	.
=7	=7	=7	=7
0C	4e]	4g	0cc
.	4d	4f	.
.	1c	4e	.
.	.	4d	.
.	.	1e	.
.	4B	.	.
.	4A	.	.
=8	=8	=8	=8
0r	1B	1d	1dd
.	1c	1g	1ee
=9	=9	=9	=9
0C	1r	2g	1ee
.	.	1e	.
.	1c	.	2ee
.	.	4d	[2ee
.	.	4c	.
=10	=10	=10	=10
1C	1c	0g	4ee]
.	.	.	4dd
.	.	.	1cc
1C	1c	.	.
.	.	.	4b
.	.	.	4a
=11	=11	=11	=11
0G	1d	1.g	0b
.	2d	.	.
.	2d	4f	.
.	.	4e	.
=12	=12	=12	=12
1G	2.B	1d	0r
.	4c	.	.
2G	4d	2B	.
.	4e	.	.
[2A	[2f	[2c	.
=13	=13	=13	=13
4A]	4f]	4c]	0r
4G	4e	4B	.
4F	1e	4A	.
4E	.	4G	.
1F	.	1A	.
.	2d	.	.
=14	=14	=14	=14
1E	1e	2.G	0r
.	.	4A	.
[1E	2e	2B	.
.	[2e	[2c	.
=15	=15	=15	=15
2E]	2e]	2c]	0r
2E	4d	4B	.
.	4c	4A	.
1E	1B	1G	.
=16	=16	=16	=16
1E	2.G	2r	0r
.	.	1G	.
.	4A	.	.
2E	4B	.	.
.	4c	.	.
[2F	[2d	[2A	.
=17	=17	=17	=17
4F]	4d]	4A]	1.ff
4E	4c	4G	.
4D	1c	4F	.
4C	.	4E	.
1D	.	1F	.
.	2B	.	2ff
=18	=18	=18	=18
1C	1c	1G	1ee
1D	1f	1r	[1dd
=19	=19	=19	=19
1BB	1f	1d	2dd]
.	.	.	4cc
.	.	.	4dd
2C	2e	2G	[1cc
2C	2e	[2g	.
=20	=20	=20	=20
1G	1d	2g]	2cc]
.	.	4f	4b
.	.	4e	4cc
1G	1d	1g	2b
.	.	.	4a
.	.	.	4b
=21	=21	=21	=21
2.C	0c	2r	[0cc
.	.	1g	.
4D	.	.	.
2E	.	.	.
[2F	.	[2a	.
=22	=22	=22	=22
2F]	1r	2a]	0cc]
4E	.	4g	.
4D	.	4f	.
1C	1c	2.g	.
.	.	4f	.
=23	=23	=23	=23
2.G	2.B	4e	0r
.	.	4d	.
.	.	2.g	.
4A	4c	.	.
2B	2d	.	.
.	.	4f	.
[2c	[2e	4e	.
.	.	4d	.
=24	=24	=24	=24
2c]	4e]	1c	0r
.	4d	.	.
4B	1c	.	.
4A	.	.	.
1G	.	1d	.
.	2B	.	.
=25	=25	=25	=25
2.C	0c	2r	0r
.	.	1g	.
4D	.	.	.
2E	.	.	.
[2F	.	[2a	.
=26	=26	=26	=26
2F]	1r	2a]	0r
4E	.	4g	.
4D	.	4f	.
1C	1c	2.g	.
.	.	4f	.
=27	=27	=27	=27
2.G	2.B	4e	0r
.	.	4d	.
.	.	2.g	.
4A	4c	.	.
2B	2d	.	.
.	.	4f	.
[2c	[2e	4e	.
.	.	4d	.
=28	=28	=28	=28
2c]	4e]	1c	0r
.	4d	.	.
4B	1c	.	.
4A	.	.	.
1G	.	1d	.
.	2B	.	.
=29	=29	=29	=29
2.C	0c	2r	0cc
.	.	1g	.
4D	.	.	.
2E	.	.	.
[2F	.	[2a	.
=30	=30	=30	=30
2F]	1r	2a]	1dd
4E	.	4g	.
4D	.	4f	.
1C	2.c	1g	1ee
.	4d	.	.
=31	=31	=31	=31
2r	4e	0e	1ee
.	4f	.	.
2c	2g	.	.
2A	2a	.	2ee
[2c	[2g	.	[2ee
=32	=32	=32	=32
4c]	2g]	1r	4ee]
4B	.	.	4dd
4A	2e	.	1cc
4G	.	.	.
1A	1f	1c	.
.	.	.	4b
.	.	.	4a
=33	=33	=33	=33
1G	1g	2.d	0b
.	.	4c	.
2r	2r	4B	.
.	.	4A	.
2G	[2g	[2G	.
=34	=34	=34	=34
1E	4g]	2G]	0r
.	4f	.	.
.	1e	1c	.
1C	.	.	.
.	4d	4B	.
.	4c	4A	.
=35	=35	=35	=35
1G	2.d	1B	0r
.	4e	.	.
2r	2f	2A	.
2G	[2g	[2B	.
=36	=36	=36	=36
1E	4g]	2B]	0r
.	4f	.	.
.	1e	1c	.
1C	.	.	.
.	4d	4B	.
.	4c	4A	.
=37	=37	=37	=37
1G	1d	1B	0r
2r	2r	1G	.
2G	[2g	.	.
=38	=38	=38	=38
1E	4g]	1g	0r
.	4f	.	.
.	2.e	.	.
1C	.	2r	.
.	4d	.	.
.	[2c	2g	.
=39	=39	=39	=39
1D	2c]	1f	1.ff
.	4B	.	.
.	4A	.	.
2r	1B	1d	.
2D	.	.	2ff
=40	=40	=40	=40
2E	1c	2r	1ee
2E	.	2g	.
1F	1d	1f	[1dd
=41	=41	=41	=41
1G	1B	1d	2dd]
.	.	.	4cc
.	.	.	4dd
2r	1c	2r	[1cc
2E	.	2e	.
=42	=42	=42	=42
1F	1d	1a	2cc]
.	.	.	4b
.	.	.	4cc
1G	2r	1g	2b
.	2d	.	4a
.	.	.	4b
=43	=43	=43	=43
2A	2.c	2e	[0cc
1F	.	1f	.
.	4B	.	.
.	4A	.	.
.	4G	.	.
2E	[2G	2g	.
=44	=44	=44	=44
1F	2G]	2a	0cc]
.	2F	4g	.
.	.	4f	.
1C	1G	1e	.
=45	=45	=45	=45
2D	1r	2r	0r
2.E	.	2B	.
.	1G	1c	.
4D	.	.	.
[2C	.	.	.
=46	=46	=46	=46
2C]	0G	1d	0r
2BB	.	.	.
1C	.	2c	.
.	.	[2e	.
=47	=47	=47	=47
2D	1r	4e]	0r
.	.	4d	.
2.E	.	1B	.
.	1G	.	.
4D	.	.	.
[2C	.	2c	.
=48	=48	=48	=48
2C]	0G	1d	0r
2BB	.	.	.
1C	.	2c	.
.	.	[2e	.
=49	=49	=49	=49
2D	1r	4e]	0r
.	.	4d	.
2.E	.	1B	.
.	1G	.	.
4D	.	.	.
[2C	.	2c	.
=50	=50	=50	=50
2C]	0G	1d	0r
2BB	.	.	.
1C	.	1e	.
=51	=51	=51	=51
1r	1r	1r	0cc
1C	1G	1e	.
=52	=52	=52	=52
1F	1A	1f	1dd
1E	1B	1g	1ee
=53	=53	=53	=53
1A	1c	1e	1ee
2G	2B	2e	2ee
2A	2c	2e	[2ee
=54	=54	=54	=54
2G	2B	1e	4ee]
.	.	.	4dd
1A	2c	.	1cc
.	1A	1e	.
4G	.	.	4b
4F	.	.	4a
=55	=55	=55	=55
1E	1G	0e	0b
2r	2.G	.	.
[2E	.	.	.
.	4A	.	.
=56	=56	=56	=56
2E]	2B	2r	0r
1G	1G	1e	.
4F	[2c	4d	.
4E	.	4c	.
=57	=57	=57	=57
1D	2c]	1f	0r
.	2B	.	.
1C	2.c	2e	.
.	.	[2g	.
.	4d	.	.
=58	=58	=58	=58
4C	4e	4g]	0r
4D	4f	4f	.
4E	1g	1e	.
4F	.	.	.
4G	.	.	.
4A	.	.	.
4B	4f	4d	.
4c	4e	4c	.
=59	=59	=59	=59
2d	2f	2B	0r
1c	2e	2c	.
.	1d	1G	.
2B	.	.	.
=60	=60	=60	=60
1c	2r	1r	0r
.	1g	.	.
1C	.	1c	.
.	4f	.	.
.	4e	.	.
=61	=61	=61	=61
2D	1f	2A	1.ff
1F	.	1a	.
.	1d	.	.
4E	.	4g	2ff
4D	.	4f	.
=62	=62	=62	=62
1C	2e	2g	1ee
.	1g	2c	.
1G	.	1d	[1dd
.	4f	.	.
.	4e	.	.
=63	=63	=63	=63
2A	2f	2r	2dd]
1c	1e	1g	4cc
.	.	.	4dd
.	.	.	[1cc
4B	4d	[2g	.
4A	4c	.	.
=64	=64	=64	=64
2G	2e	2g]	2cc]
2F	2f	2a	4b
.	.	.	4cc
1G	1d	1g	2b
.	.	.	4a
.	.	.	4b
=65	=65	=65	=65
*	*	*^	*
0Cl	0cl	0el	0gl	0ccl
*	*	*v	*v	*
!!LO:LB:i:g=z
=66||	=66||	=66||	=66||
*>B	*>B	*>B	*>B
*clefF4	*clefGv2	*clefGv2	*clefG2
*k[]	*k[]	*k[]	*k[]
*M2/1	*M2/1	*M2/1	*M2/1
*met(C|)	*met(C|)	*met(C|)	*met(C|)
!!section: Et incarnatus est
!!!OMD: Et incarnatus est
!	!LO:TX:Z=8:t=Repeat sign indicates repetition of T, mm. 66-75	!	!
1C	1c	1g	0r
2C	2c	2g	.
2E	2c	2g	.
=67	=67	=67	=67
1D	1d	1f	0r
2C	1e	1g	.
[2c	.	.	.
=68	=68	=68	=68
4c]	1e	1c	0r
4B	.	.	.
4A	.	.	.
4G	.	.	.
2A	2e	2r	.
4G	[2e	2c	.
4F	.	.	.
=69	=69	=69	=69
1E	4e]	2.g	0r
.	4d	.	.
.	1c	.	.
.	.	4f	.
2r	.	4e	.
.	.	4d	.
2A	4B	[2e	.
.	4A	.	.
=70	=70	=70	=70
2.G	1B	2e]	0r
.	.	4d	.
4A	.	4c	.
2B	1r	2d	.
[2A	.	[2e	.
=71	=71	=71	=71
2A]	0r	4e]	0r
.	.	4A	.
4G	.	1d	.
4F	.	.	.
1E	.	.	.
.	.	2c#i	.
=72	=72	=72	=72
1D	1f	1d	0r
2r	2f	1r	.
2D	2f	.	.
=73	=73	=73	=73
1E	1e	0r	0r
1F	[1d	.	.
=74	=74	=74	=74
1G	2d]	0r	0r
.	4c	.	.
.	4B	.	.
2E	2c	.	.
4F	[2d	.	.
4E	.	.	.
=75	=75	=75	=75
4F	2d]	1r	0r
4E	.	.	.
4D	1c	.	.
4C	.	.	.
1D	.	1f	.
.	2B	.	.
=76	=76	=76	=76
0C	1c	2e	0r
.	.	1g	.
.	2c	.	.
.	2c	4f	.
.	.	4e	.
=77	=77	=77	=77
1r	1d	1d	0r
[1C	1e	1c	.
=78	=78	=78	=78
2C]	1e	2r	0r
2.C	.	1c	.
.	2e	.	.
4D	.	.	.
2E	[2e	2B	.
=79	=79	=79	=79
1C	4e]	1c	0r
.	4d	.	.
.	1c	.	.
2r	.	1e	.
2C	4B	.	.
.	4A	.	.
=80	=80	=80	=80
1G	1B	1d	0r
2A	1r	1c	.
[2c	.	.	.
=81	=81	=81	=81
2c]	0r	2r	0r
2B	.	1g	.
2c	.	.	.
2C	.	4f	.
.	.	4e	.
=82	=82	=82	=82
2D	1f	2f	0r
2.F	.	1a	.
.	2f	.	.
4E	.	.	.
[2D	2f	[2A	.
=83	=83	=83	=83
2D]	1e	4A]	0r
.	.	4B	.
2C	.	2c	.
2.D	[1d	4B	.
.	.	4A	.
.	.	[2f	.
4E	.	.	.
=84	=84	=84	=84
2F	2d]	2f]	0r
2G	4c	4e	.
.	4B	4d	.
2A	2c	2c	.
2B-	[2d	[2b-	.
=85	=85	=85	=85
2G	2d]	2b-]	0r
2A	1c	2.a	.
2F	.	.	.
.	.	4g	.
2G	2B	[2g	.
=86	=86	=86	=86
1A	1c	2g]	0r
.	.	2f#i	.
1G	1r	2.g	.
.	.	4f	.
=87	=87	=87	=87
2r	1e	4e	0r
.	.	4d	.
1C	.	1c	.
.	2e	.	.
[2G	2e	4B	.
.	.	4A	.
=88	=88	=88	=88
2G]	2d	1G	0r
4F	1g	.	.
4E	.	.	.
1D	.	1A	.
.	2f#i	.	.
=89	=89	=89	=89
2r	1g	2G	0r
1G	.	1g	.
.	2e	.	.
2F	[2f	[2a	.
=90	=90	=90	=90
2D	4f]	4a]	0r
.	4e	4g	.
2F	4f	4a	.
.	4d	4f	.
2E	4e	4g	.
.	4d	4f	.
[2A	4c	4e	.
.	4B	4d	.
=91	=91	=91	=91
2A]	2A	2f	0r
2G	1d	2g	.
1A	.	1e	.
.	2c#i	.	.
=92	=92	=92	=92
1D	1d	2r	0r
.	.	1a	.
1r	2r	.	.
.	2d	4g	.
.	.	4f	.
=93	=93	=93	=93
0r	1.e	2g	0r
.	.	1cc	.
.	2d	2b	.
=94	=94	=94	=94
0r	1c	2a	0r
.	.	4g	.
.	.	4f	.
.	1B	4g	.
.	.	4f	.
.	.	4e	.
.	.	4d	.
=95	=95	=95	=95
2r	1c	1e	0r
2A	.	.	.
2B	1d	1d	.
[2d	.	.	.
=96	=96	=96	=96
2d]	2r	0r	0r
4c	2d	.	.
4B	.	.	.
2c	[1e	.	.
4B	.	.	.
4A	.	.	.
=97	=97	=97	=97
2G	2e]	2r	0r
2B	2d	2d	.
1A	1c	2e	.
.	.	2f	.
=98	=98	=98	=98
2r	1B	1g	0r
2G	.	.	.
2A	1c	1e	.
2c	.	.	.
=99	=99	=99	=99
2G	1d	2r	0r
2B	.	1d	.
1A	1r	.	.
.	.	2c	.
=100	=100	=100	=100
2r	2.d	2B	0r
2.G	.	2G	.
.	4c	.	.
.	4B	1d	.
4F	4A	.	.
4E	[2G	.	.
4D	.	.	.
=101	=101	=101	=101
2C	2G]	2r	0r
2E	2.c	1g	.
1D	.	.	.
.	4B	.	.
.	4B	2f	.
.	4A	.	.
=102	=102	=102	=102
2r	2c	2e	0r
2.G	2e	4d	.
.	.	4c	.
.	2d	2B	.
4F	.	.	.
4E	[2g	[2e	.
4D	.	.	.
=103	=103	=103	=103
2C	2g]	2e]	0r
2D	2f	2d	.
2E	2e	2c	.
2F	[2d	4B	.
.	.	4A	.
=104	=104	=104	=104
1G	2d]	2G	0r
.	4c	2d	.
.	4B	.	.
2r	2A	2e	.
[2C	[2G	[2g	.
=105	=105	=105	=105
4C]	2G]	2g]	0r
4D	.	.	.
2E	1c	4f	.
.	.	4e	.
2F	.	1d	.
2G	2B	.	.
=106	=106	=106	=106
2A	[0cl	2c	0r
4G	.	4B	.
4F	.	4A	.
2E	.	2G	.
2F	.	[2A	.
=107	=107	=107	=107
2F	0c_	2A]	0r
2C	.	1G	.
2E	.	.	.
2F	.	2F	.
=108	=108	=108	=108
0Cl	0c]	0Gl	0r
!!LO:LB:i:g=z
=109||	=109||	=109||	=109||
*>C	*>C	*>C	*>C
*clefF4	*clefGv2	*clefGv2	*clefG2
*k[]	*k[]	*k[]	*k[]
*M2/1	*M2/1	*M2/1	*M2/1
*met(C|)	*met(C|)	*met(C|)	*met(C|)
!!section: Et resurrexit
!!!OMD: Et resurrexit
1C	1c	1g	1ee
2C	2c	2g	1ee
2C	2c	2g	.
=110	=110	=110	=110
1G	1B	1g	1dd
1E	1B	1g	[1gg
=111	=111	=111	=111
1C	1c	1e	1gg]
1D	1A	1f	1ff
=112	=112	=112	=112
1E	1G	1e	0gg
1C	1c	1e	.
=113	=113	=113	=113
1F	2c	1a	0r
.	1d	.	.
1G	.	1g	.
.	4c	.	.
.	4B	.	.
=114	=114	=114	=114
1A	4c	1e	0r
.	4d	.	.
.	4e	.	.
.	4f	.	.
2B	2g	1r	.
[2c	[2e	.	.
=115	=115	=115	=115
2c]	2e]	0r	0r
4B	4d	.	.
4A	4c	.	.
2B	2d	.	.
[2A	[2c	.	.
=116	=116	=116	=116
2A]	2c]	0r	0r
4G	1f	.	.
4F	.	.	.
1G	.	.	.
.	2e	.	.
=117	=117	=117	=117
0F	1f	1.a	1.ff
.	2f	.	.
.	2f	2a	2ff
=118	=118	=118	=118
0r	1d	1a	1ff
.	1c	1a	[1ee
=119	=119	=119	=119
1D	1d	1a	2ee]
.	.	.	2dd
2D	2f	2a	[1dd
2D	2f	2a	.
=120	=120	=120	=120
1A	1e	1a	1dd]
1A	1e	1a	1cc#i
=121	=121	=121	=121
2.B-	0d	1f	[0dd
4A	.	.	.
2G	.	2g	.
2F	.	[2a	.
=122	=122	=122	=122
2D	1r	2a]	0dd]
1G	.	1b	.
.	1d	.	.
4F	.	4a	.
4E	.	4g	.
=123	=123	=123	=123
1D	1f	1a	0r
1r	1e	2g	.
.	.	2cc	.
=124	=124	=124	=124
0r	1d	2b	0r
.	.	2.a	.
.	2c	.	.
.	.	4g	.
.	[2d	4f	.
.	.	4e	.
=125	=125	=125	=125
1r	2d]	2.f	0r
.	4c	.	.
.	4B	4g	.
2r	2A	2a	.
[2G	2G	[2b	.
=126	=126	=126	=126
2G]	2B	4b]	0r
.	.	4a	.
2C	2c	1g	.
1D	1A	.	.
.	.	2f#i	.
=127	=127	=127	=127
2.E	1G	2.g	0r
4F	.	4f	.
4G	1r	2e	.
4A	.	.	.
[2B	.	[2d	.
=128	=128	=128	=128
4B]	0r	4d]	0r
4A	.	4c	.
1G	.	2B	.
.	.	1A	.
2F#i	.	.	.
=129	=129	=129	=129
2.G	0r	2G	1r
.	.	1g	.
4A	.	.	.
4B	.	.	2r
4c	.	.	.
2d	.	2f	2dd
=130	=130	=130	=130
2c	0r	2e	1.ee
4B	.	1g	.
4A	.	.	.
2G	.	.	.
2D	.	2f	2dd
=131	=131	=131	=131
1A	0r	2e	1cc
.	.	4d	.
.	.	4c	.
1G	.	1d	1b
=132	=132	=132	=132
2r	1r	1c	1cc
2c	.	.	.
2B	2r	1r	1dd
2d	2d	.	.
=133	=133	=133	=133
2c	1.e	0r	0r
1G	.	.	.
2F	2d	.	.
=134	=134	=134	=134
2E	1c	0r	0r
4D	.	.	.
4C	.	.	.
1D	1B	.	.
=135	=135	=135	=135
0r	1c	2r	1r
.	.	2e	.
.	1d	1f	2r
.	.	.	2dd
=136	=136	=136	=136
0r	2r	2g	1.ee
.	2A	2.a	.
.	2c	.	.
.	.	4g	.
.	2d	2f	2dd
=137	=137	=137	=137
2r	4A	2.e	1cc
.	4B	.	.
2A	4c	.	.
.	4d	4f	.
2G	2e	2g	2b
2F	[2f	[2a	[2a
=138	=138	=138	=138
1D	2f]	2a]	2a]
.	4e	4g	1dd
.	4d	4f	.
1A	1e	1a	.
.	.	.	2cc#i
=139	=139	=139	=139
2r	1d	2r	0dd
2.D	.	2.a	.
.	1r	.	.
4E	.	4g	.
4F	.	4f	.
4G	.	4e	.
=140	=140	=140	=140
2A	0r	2f	0r
2B	.	2g	.
2A	.	2f	.
[2G	.	[2e	.
=141	=141	=141	=141
2G]	0r	2e]	0r
4F	.	4d	.
4E	.	4c	.
2D	.	2f	.
2C	.	[2e	.
=142	=142	=142	=142
2D	1r	4e]	0r
.	.	4d	.
2F	.	1d	.
1E	2r	.	.
.	2e	2c#i	.
=143	=143	=143	=143
1D	2f	1d	0r
.	1d	.	.
2r	.	2r	.
2G	4c	[2d	.
.	4B	.	.
=144	=144	=144	=144
2F	2A	2d]	0r
2E	1G	1g	.
1C	.	.	.
.	[2c	4f	.
.	.	4e	.
=145	=145	=145	=145
1G	2c]	1d	0r
.	2B	.	.
2r	2c	1c	.
[2C	[2g	.	.
=146	=146	=146	=146
4C]	4g]	0r	0r
4D	4f	.	.
4E	4e	.	.
4F	4d	.	.
2G	2e	.	.
2A	2f	.	.
=147	=147	=147	=147
2G	2e	0r	0r
1F	1d	.	.
4E	4c	.	.
4D	4B	.	.
=148	=148	=148	=148
2C	2e	0r	0r
2BB	2.d	.	.
2C	.	.	.
.	4c	.	.
2E	[2c	.	.
=149	=149	=149	=149
1D	2c]	2r	0r
.	2B	2d	.
1C	1c	2e	.
.	.	[2g	.
=150	=150	=150	=150
2.G	2r	2g]	2.dd
.	1d	4f	.
4A	.	4e	4cc
2B	.	2d	4b
.	.	.	4a
[2c	[2e	[2g	[2g
=151	=151	=151	=151
2c]	2e]	4g]	2g]
.	.	4e	.
4B	4d	2f	1cc
4A	4c	.	.
1G	1d	1g	.
.	.	.	2b
=152	=152	=152	=152
2r	1c	1e	1cc
1c	.	.	.
.	2r	1d	1r
2B	2d	.	.
=153	=153	=153	=153
2c	2e	0r	0r
4B	1g	.	.
4A	.	.	.
2G	.	.	.
2c	4f	.	.
.	4e	.	.
=154	=154	=154	=154
2B	2d	1r	0r
2c	1g	.	.
1A	.	1c	.
.	2f	.	.
=155	=155	=155	=155
2.G	2g	2B	2.dd
.	4f	1G	.
4A	4e	.	4cc
2B	2d	.	4b
.	.	.	4a
[2c	[2e	[2g	[2g
=156	=156	=156	=156
2c]	2e]	4g]	2g]
.	.	4e	.
4B	4d	2f	1cc
4A	4c	.	.
1G	1d	1g	.
.	.	.	2b
=157	=157	=157	=157
2r	1c	1e	1cc
1c	.	.	.
.	1r	1d	1r
2B	.	.	.
=158	=158	=158	=158
2c	0r	2r	0r
4B	.	1g	.
4A	.	.	.
2G	.	.	.
2c	.	4f	.
.	.	4e	.
=159	=159	=159	=159
2B	1r	2d	0r
2c	.	2.g	.
1A	1c	.	.
.	.	4e	.
.	.	2f	.
=160	=160	=160	=160
2.G	2.B	1g	2.dd
4A	4c	.	4cc
2B	2d	2r	4b
.	.	.	4a
[2c	[2e	[2g	[2g
=161	=161	=161	=161
2c]	2e]	4g]	2g]
.	.	4e	.
4B	4d	2f	1cc
4A	4c	.	.
1G	1d	1g	.
.	.	.	2b
=162	=162	=162	=162
0C	0c	0g	2cc
.	.	.	1ee
.	.	.	4dd
.	.	.	4cc
=163	=163	=163	=163
[0G	[0d	[0g	[0b
=164	=164	=164	=164
0G]	0d]	0g]	0b]
=165	=165	=165	=165
0Cl	0cl	0gl	0ccl
==	==	==	==
*-	*-	*-	*-
!!!RDF**kern: l=long note in original notation
!!!RDF**kern: i=editorial accidental
!!!ENC:	Jesse Rodin 8/14/2013
!!!END:	2013/08/14/
!!!EED:	Jesse Rodin
!!!EEV:	2013/08/14/
!!!ONB:	Translated from MusicXML and edited on 2013/08/14/ by Craig Sapp
!!muse2ps: T^@{OPR}^u^@{ONM}{. }@{OTL}^C^@{COM}\n@{SMS}, @{folio-OPR}^i2I150v85,85,85,150Q16
